svgs/sharp-regular/notebook.svg

<svg xmlns="http://www.w3.org/2000/svg" viewBox="0 0 512 512"><!--! Font Awesome Pro 6.6.0 by @fontawesome - https://fontawesome.com License - https://fontawesome.com/license (Commercial License) Copyright 2024 Fonticons, Inc. --><path d="M240 48l192 0 0 416-192 0 0-416zm-48 0l0 416-80 0 0-48 24 0 24 0 0-48-24 0-24 0 0-88 24 0 24 0 0-48-24 0-24 0 0-88 24 0 24 0 0-48-24 0-24 0 0-48 80 0zM64 416l0 48 0 48 48 0 320 0 48 0 0-48 0-416 0-48L432 0 112 0 64 0l0 48 0 48L24 96 0 96l0 48 24 0 40 0 0 88-40 0L0 232l0 48 24 0 40 0 0 88-40 0L0 368l0 48 24 0 40 0z"/></svg>

<svg xmlns="http://www.w3.org/2000/svg" viewBox="0 0 512 512"><!--! Font Awesome Pro 6.4.2 by @fontawesome - https://fontawesome.com License - https://fontawesome.com/license (Commercial License) Copyright 2023 Fonticons, Inc. --><path d="M240 48H432V464H240V48zm-48 0V464H112V416h24 24V368H136 112V280h24 24V232H136 112V144h24 24V96H136 112V48h80zM64 416v48 48h48H432h48V464 48 0H432 112 64V48 96H24 0v48H24 64v88H24 0v48H24 64v88H24 0v48H24 64z"/></svg>
